resources/haticons/SVG/codepen.svg

<!-- Generated by IcoMoon.io -->
<svg version="1.1" xmlns="http://www.w3.org/2000/svg" width="24" height="24" viewBox="0 0 24 24">
<title>codepen</title>
<path d="M22.166 8.626l-10.5-7c-0.252-0.168-0.58-0.168-0.832 0l-10.5 7c-0.209 0.139-0.334 0.373-0.334 0.624v7c0 0.251 0.125 0.485 0.334 0.624l10.5 7c0.126 0.084 0.271 0.126 0.416 0.126s0.29-0.042 0.416-0.126l10.5-7c0.209-0.139 0.334-0.373 0.334-0.624v-7c0-0.251-0.125-0.485-0.334-0.624zM11.25 15.349l-3.898-2.599 3.898-2.599 3.898 2.599-3.898 2.599zM12 8.849v-5.197l8.398 5.599-3.898 2.599-4.5-3zM10.5 8.849l-4.5 3-3.898-2.599 8.398-5.599v5.197zM4.648 12.75l-3.148 2.099v-4.197l3.148 2.099zM6 13.651l4.5 3v5.197l-8.398-5.599 3.898-2.599zM12 16.651l4.5-3 3.898 2.599-8.398 5.599v-5.197zM17.852 12.75l3.148-2.099v4.197l-3.148-2.099z"></path>
</svg>

<svg xmlns="http://www.w3.org/2000/svg" width="24" height="24"><path d="M22.166 8.626l-10.5-7a.75.75 0 0 0-.832 0l-10.5 7A.749.749 0 0 0 0 9.25v7c0 .251.125.485.334.624l10.5 7a.75.75 0 0 0 .832 0l10.5-7a.749.749 0 0 0 .334-.624v-7a.749.749 0 0 0-.334-.624zM11.25 15.349L7.352 12.75l3.898-2.599 3.898 2.599-3.898 2.599zm.75-6.5V3.652l8.398 5.599L16.5 11.85l-4.5-3zm-1.5 0l-4.5 3L2.102 9.25 10.5 3.651v5.197zM4.648 12.75L1.5 14.849v-4.197l3.148 2.099zM6 13.651l4.5 3v5.197l-8.398-5.599L6 13.65zm6 3l4.5-3 3.898 2.599L12 21.849v-5.197zm5.852-3.901L21 10.651v4.197l-3.148-2.099z"/></svg>
